X:1
T:Hessian Dance. Ca1758.025, The
M:3/4
L:1/4
B:Cahusac,T. 24 Country Dances for the Year 1758
Z:vmp.Mike Hicken 2015 www.village-music-project.org.uk
Q:3/4=50
K:G
"_Presto" gdB|G/F/G/A/ G|DEF|G/F/G/A/ G|gdB|G/F/G/A/ G|DEF|G3 :|
|: def|g2e|f/a/g/f/e/d/|e/g/f/e/d/^c/|def g2c|B A/G/A/F/|1 G3 :|2 G2g||
d2e B2c|AGF|GDg|d2e|B2c|AGF|G2 |]
W:
W: The 1st Man cast off and turn the 3d. Wo.
W: .|  his Partner do the same with the 3d. Man
W: :|  Lead thro' the top and cast off .|  Lead
W: thro' the Bottom and cast up :|  Back to
W: Back .|  and Right and Left :|

